X: 1
T: Old Cuffe Street
M: 4/4
L: 1/8
R: reel
K: Gmaj
G2(3Bcd gbag|egdB cBAF|G2(3Bcd gbag|(3efg dB cBAF|
G2(3Bcd gbag|edef gfga|bgaf gfed|1(3efg dB cBAF:|2(3efg dB Agfg||
eA~A2 egfg|eA~A2 egfg|eA~A2 edef|gedB Agfg|
eA~A2 egfg|eA~A2 edBA|(3Bcd gb afgd|(3efg dB cBAF||&quot;fine&quot;G4|
